flaticon/seo-and-analytics/smartphone-1.svg

<svg xmlns="http://www.w3.org/2000/svg" width="32" height="32" viewBox="0 0 24 24">
    <path d="M 17.398438 0 L 7 0 C 6.121094 0 5.398438 0.71875 5.398438 1.601562 L 5.398438 3.601562 C 5.160156 3.601562 5 3.761719 5 4 L 5 4.398438 C 5 4.640625 5.160156 4.800781 5.398438 4.800781 L 5.398438 5.199219 C 5.160156 5.199219 5 5.359375 5 5.601562 L 5 6 C 5 6.238281 5.160156 6.398438 5.398438 6.398438 L 5.398438 6.800781 C 5.160156 6.800781 5 6.960938 5 7.199219 L 5 7.601562 C 5 7.839844 5.160156 8 5.398438 8 L 5.398438 22.398438 C 5.398438 23.28125 6.121094 24 7 24 L 17.398438 24 C 18.28125 24 19 23.28125 19 22.398438 L 19 1.601562 C 19 0.71875 18.28125 0 17.398438 0 Z M 12.199219 22.800781 C 11.761719 22.800781 11.398438 22.441406 11.398438 22 C 11.398438 21.558594 11.761719 21.199219 12.199219 21.199219 C 12.640625 21.199219 13 21.558594 13 22 C 13 22.441406 12.640625 22.800781 12.199219 22.800781 Z M 6.199219 3.199219 L 18.199219 3.199219 L 18.199219 20 L 6.199219 20 Z M 6.199219 22.398438 L 6.199219 20.800781 L 11.144531 20.800781 C 10.8125 21.09375 10.601562 21.523438 10.601562 22 C 10.601562 22.476562 10.8125 22.90625 11.144531 23.199219 L 7 23.199219 C 6.558594 23.199219 6.199219 22.839844 6.199219 22.398438 Z M 18.199219 22.398438 C 18.199219 22.839844 17.839844 23.199219 17.398438 23.199219 L 13.253906 23.199219 C 13.589844 22.90625 13.800781 22.476562 13.800781 22 C 13.800781 21.523438 13.589844 21.09375 13.253906 20.800781 L 18.199219 20.800781 Z M 6.199219 2.398438 L 6.199219 1.601562 C 6.199219 1.160156 6.558594 0.800781 7 0.800781 L 17.398438 0.800781 C 17.839844 0.800781 18.199219 1.160156 18.199219 1.601562 L 18.199219 2.398438 Z M 6.199219 2.398438"/>
    <path d="M13.800781 1.199219L11.800781 1.199219C11.558594 1.199219 11.398438 1.359375 11.398438 1.601562 11.398438 1.839844 11.558594 2 11.800781 2L13.800781 2C14.039062 2 14.199219 1.839844 14.199219 1.601562 14.199219 1.359375 14.039062 1.199219 13.800781 1.199219zM10.601562 1.199219L10.199219 1.199219C9.960938 1.199219 9.800781 1.359375 9.800781 1.601562 9.800781 1.839844 9.960938 2 10.199219 2L10.601562 2C10.839844 2 11 1.839844 11 1.601562 11 1.359375 10.839844 1.199219 10.601562 1.199219zM12.601562 7.21875L12.601562 7.199219 12.199219 7.199219C9.761719 7.199219 7.800781 9.160156 7.800781 11.601562 7.800781 11.761719 7.800781 11.878906 7.800781 12.039062L7.839844 12.398438 7.871094 12.398438C8.246094 14.453125 10.035156 16 12.199219 16 14.640625 16 16.601562 14.039062 16.601562 11.601562 16.601562 9.296875 14.851562 7.417969 12.601562 7.21875zM8.605469 11.425781C8.605469 11.378906 8.609375 11.332031 8.613281 11.289062 8.613281 11.277344 8.617188 11.265625 8.617188 11.257812 8.777344 9.574219 10.113281 8.226562 11.800781 8.039062L11.800781 11.601562 8.601562 11.601562C8.601562 11.539062 8.601562 11.480469 8.605469 11.425781zM12.199219 15.199219C10.476562 15.199219 9.050781 14.011719 8.6875 12.398438L12.601562 12.398438 12.601562 8.023438C14.410156 8.21875 15.800781 9.734375 15.800781 11.601562 15.800781 13.601562 14.199219 15.199219 12.199219 15.199219zM16.199219 16.800781L12.199219 16.800781C11.960938 16.800781 11.800781 16.960938 11.800781 17.199219 11.800781 17.441406 11.960938 17.601562 12.199219 17.601562L16.199219 17.601562C16.441406 17.601562 16.601562 17.441406 16.601562 17.199219 16.601562 16.960938 16.441406 16.800781 16.199219 16.800781zM8.199219 17.601562L10.601562 17.601562C10.839844 17.601562 11 17.441406 11 17.199219 11 16.960938 10.839844 16.800781 10.601562 16.800781L8.199219 16.800781C7.960938 16.800781 7.800781 16.960938 7.800781 17.199219 7.800781 17.441406 7.960938 17.601562 8.199219 17.601562zM11.800781 18.398438L8.199219 18.398438C7.960938 18.398438 7.800781 18.558594 7.800781 18.800781 7.800781 19.039062 7.960938 19.199219 8.199219 19.199219L11.800781 19.199219C12.039062 19.199219 12.199219 19.039062 12.199219 18.800781 12.199219 18.558594 12.039062 18.398438 11.800781 18.398438zM16.199219 18.398438L13.398438 18.398438C13.160156 18.398438 13 18.558594 13 18.800781 13 19.039062 13.160156 19.199219 13.398438 19.199219L16.199219 19.199219C16.441406 19.199219 16.601562 19.039062 16.601562 18.800781 16.601562 18.558594 16.441406 18.398438 16.199219 18.398438zM16.199219 4L12.199219 4C11.960938 4 11.800781 4.160156 11.800781 4.398438 11.800781 4.640625 11.960938 4.800781 12.199219 4.800781L16.199219 4.800781C16.441406 4.800781 16.601562 4.640625 16.601562 4.398438 16.601562 4.160156 16.441406 4 16.199219 4zM8.199219 4.800781L10.601562 4.800781C10.839844 4.800781 11 4.640625 11 4.398438 11 4.160156 10.839844 4 10.601562 4L8.199219 4C7.960938 4 7.800781 4.160156 7.800781 4.398438 7.800781 4.640625 7.960938 4.800781 8.199219 4.800781zM8.199219 6.398438L11.800781 6.398438C12.039062 6.398438 12.199219 6.238281 12.199219 6 12.199219 5.761719 12.039062 5.601562 11.800781 5.601562L8.199219 5.601562C7.960938 5.601562 7.800781 5.761719 7.800781 6 7.800781 6.238281 7.960938 6.398438 8.199219 6.398438zM16.199219 5.601562L13.398438 5.601562C13.160156 5.601562 13 5.761719 13 6 13 6.238281 13.160156 6.398438 13.398438 6.398438L16.199219 6.398438C16.441406 6.398438 16.601562 6.238281 16.601562 6 16.601562 5.761719 16.441406 5.601562 16.199219 5.601562zM16.199219 5.601562"/>
</svg>

<svg xmlns="http://www.w3.org/2000/svg" width="32" height="32" viewBox="0 0 24 24">
    <path d="M17.398 0H7c-.879 0-1.602.719-1.602 1.602v2C5.16 3.602 5 3.762 5 4v.398c0 .243.16.403.398.403v.398C5.16 5.2 5 5.36 5 5.602V6c0 .238.16.398.398.398v.403C5.16 6.8 5 6.96 5 7.199v.403c0 .238.16.398.398.398v14.398C5.398 23.281 6.121 24 7 24h10.398c.883 0 1.602-.719 1.602-1.602V1.602C19 .719 18.281 0 17.398 0zM12.2 22.8c-.437 0-.8-.359-.8-.8 0-.441.363-.8.8-.8a.802.802 0 0 1 0 1.6zm-6-19.6h12V20h-12zm0 19.198v-1.597h4.946a1.598 1.598 0 0 0 0 2.398H7c-.441 0-.8-.36-.8-.8zm12 0c0 .442-.36.801-.8.801h-4.145a1.588 1.588 0 0 0 0-2.398h4.945zm-12-20v-.796C6.2 1.16 6.56.8 7 .8h10.398c.442 0 .801.36.801.8v.797zm0 0"/>
    <path d="M13.8 1.2h-2c-.241 0-.402.16-.402.402 0 .238.16.398.403.398h2c.238 0 .398-.16.398-.398 0-.243-.16-.403-.398-.403zm0 0M10.602 1.2h-.403c-.238 0-.398.16-.398.402 0 .238.16.398.398.398h.403c.238 0 .398-.16.398-.398 0-.243-.16-.403-.398-.403zm0 0M12.602 7.219v-.02h-.403a4.389 4.389 0 0 0-4.398 4.403v.437l.039.36h.031A4.39 4.39 0 0 0 12.2 16a4.389 4.389 0 0 0 4.403-4.398 4.387 4.387 0 0 0-4-4.383zm-3.997 4.207c0-.047.004-.094.008-.137 0-.012.004-.023.004-.031a3.596 3.596 0 0 1 3.184-3.219v3.563H8.6c0-.063 0-.122.004-.176zm3.594 3.773a3.584 3.584 0 0 1-3.511-2.8h3.914V8.022a3.58 3.58 0 0 1 3.199 3.579c0 2-1.602 3.597-3.602 3.597zm0 0M16.2 16.8h-4c-.24 0-.4.16-.4.4 0 .241.16.402.4.402h4c.241 0 .402-.16.402-.403 0-.238-.16-.398-.403-.398zm0 0M8.2 17.602h2.402c.238 0 .398-.16.398-.403 0-.238-.16-.398-.398-.398H8.199c-.238 0-.398.16-.398.398 0 .242.16.403.398.403zm0 0M11.8 18.398H8.2c-.24 0-.4.16-.4.403 0 .238.16.398.4.398h3.6c.24 0 .4-.16.4-.398 0-.242-.16-.403-.4-.403zm0 0M16.2 18.398h-2.802c-.238 0-.398.16-.398.403 0 .238.16.398.398.398H16.2c.242 0 .403-.16.403-.398 0-.242-.16-.403-.403-.403zm0 0M16.2 4h-4c-.24 0-.4.16-.4.398 0 .243.16.403.4.403h4c.241 0 .402-.16.402-.403 0-.238-.16-.398-.403-.398zm0 0M8.2 4.8h2.402c.238 0 .398-.16.398-.402C11 4.16 10.84 4 10.602 4H8.199c-.238 0-.398.16-.398.398 0 .243.16.403.398.403zm0 0M8.2 6.398h3.6c.24 0 .4-.16.4-.398 0-.238-.16-.398-.4-.398H8.2c-.24 0-.4.16-.4.398 0 .238.16.398.4.398zm0 0M16.2 5.602h-2.802c-.238 0-.398.16-.398.398 0 .238.16.398.398.398H16.2c.242 0 .403-.16.403-.398 0-.238-.16-.398-.403-.398zm0 0"/>
</svg>
